X:1
T:Title
%%score { ( 1 3 ) | ( 2 4 ) }
L:1/8
Q:1/4=100
M:6/8
K:Bb
V:1 treble nm="Grand Piano"
V:3 treble 
V:2 bass 
V:4 bass 
V:1
 [Fd]2 [Bd] [Ad]2 [Gd] | [Fd]2 [=E_d] [F=d]3 | [Fd]2 [Bd] [Ad]2 [Gd] |[M:5/8] [Ae]2 [_Ae] [=Ae]2 | %4
w: Haldor~Lillenas * * *||||
[M:1/8] [Ae]/[Be]/ |[M:3/4] [ce]2 [Be] [Ae]2 [Ge] | [Fe]3 [Ae]2 [Ge] | [Fd]6- | [Fd]4 z2 | %9
w: |||||
 [Fd]2 [Bd] [Ad]2 [Gd] | [Fd]2 [=E_d] [F=d]3 | [Fd]2 [Bd] [Ad]2 [Bd] | %12
w: |||
 [ce]2 [Be] [Ge]2 [Ge]/[Ae]/ | [B_d]2 [Bd] [Ad]2 [Gd] | [Fd]3 [Ge]2 [Ae] | [Bd]6- | %16
w: ||||
[M:5/8] [Bd]- [Bd]3 z |[M:1/8] [DF]/[DB]/ |[M:3/4] [Fd]2 [Fd] [=E_d]2 =d | e3 d2 c | G6- | G4 z2 | %22
w: ||||||
 [=Ec]2 [Ec] [E=B]2 [Ec] | d2 c F2 e | [Fd]6- | [Fd]4 z2 | [Ff]2 [Ff] [Fe]2 [Fe] | %27
w: |||||
 [Fd]3 [_AB]2 [AB] | [Gc]2 [GB] [GB]2 G | B4- BA/G/ | F2 G A2 B | d3 [=Ed]2 [_Ec] | B6- | B4 z2 |] %34
w: |||||||
V:2
 [B,,B,]2 [B,,F,] [B,,B,]2 [B,,B,] | [B,,B,]2 [B,,B,] [B,,B,]3 | %2
 [B,,B,]2 [B,,F,] [B,,B,]2 [B,,B,] |[M:5/8] [F,C]2 [F,=B,] [F,C]2 |[M:1/8] [F,C]/[F,G,]/ | %5
[M:3/4] [F,A,]2 [F,B,] [F,C]2 [F,B,] | [F,A,]3 [F,C]2 [F,A,] | B,2 z2 z2 | z6 | %9
 [B,,B,]2 [B,,F,] [B,,B,]2 [B,,B,] | [B,,B,]2 [B,,B,] [B,,B,]3 | [B,,B,]2 [B,,F,] [B,,B,]2 [F,B,] | %12
 [E,B,]2 [E,G,] [E,B,]2 [E,B,]/[E,B,]/ | [=E,G,]2 [E,G,] [E,A,]2 [E,B,] | [F,B,]3 [F,A,]2 [F,C] | %15
 [B,,F,B,]6- |[M:5/8] [B,,F,B,]- [B,,F,B,]3 z |[M:1/8] [B,,B,]/[B,,B,]/ | %18
[M:3/4] [B,,B,]2 [B,,B,] [B,,B,]2[K:treble] [F,B,F] | [G,=B,F]3 [G,B,F]2 [G,CE] | %20
 [G,CE]2[K:bass] [G,C] [D,=B,]2 [D,B,] | [C,C]4 z [C,C]/[C,C]/ | [C,B,]2 [C,B,] [C,G,]2 [C,B,] | %23
 [F,A,E]2 [F,A,E] [F,A,]2 [F,A,F] | B,2 z2 z2 | z2 z2 z [B,,B,]/[B,,B,]/ | %26
 [D,B,]2 [D,B,] [C,A,]2 [C,A,] | [B,,B,]3 [D,B,]2 [D,B,] | [E,B,]2 [E,B,] [E,B,]2 [E,B,E] | %29
 [=E,G,_D]4- [E,G,D][E,G,D]/[E,G,D]/ | [F,B,D]2 [F,B,D] [F,CE]2 [F,B,D] | [F,B,F]3 [C,B,]2 [F,A,] | %32
 z2 F, G,2 G, | F,4 z2 |] %34
V:3
 x6 | x6 | x6 |[M:5/8] x5 |[M:1/8] x |[M:3/4] x6 | x6 | z2 B, A,2 G, | F,4 z2 | x6 | x6 | x6 | x6 | %13
 x6 | x6 | x6 |[M:5/8] x5 |[M:1/8] x |[M:3/4] x6 | x6 | z2 E F2 F | E4 z [E^F]/[EG]/ | x6 | x6 | %24
 z2 B, A,2 G, | F,4 z [DF]/[DF]/ | x6 | x6 | x6 | x6 | x6 | x6 | [B,D]2 D E2 E | D4 z2 |] %34
V:4
 x6 | x6 | x6 |[M:5/8] x5 |[M:1/8] x |[M:3/4] x6 | x6 | B,,6- | B,,4 z2 | x6 | x6 | x6 | x6 | x6 | %14
 x6 | x6 |[M:5/8] x5 |[M:1/8] x |[M:3/4] x5[K:treble] x | x6 | x2[K:bass] x4 | x6 | x6 | x6 | %24
 B,,6- | B,,4 z2 | x6 | x6 | x6 | x6 | x6 | x6 | B,,6- | B,,4 z2 |] %34

